X:470
T:Wishing Well, The
R:jig
C:Tommy Peoples
Z:hn-jig-470
M:6/8
L:1/8
K:D
DFA d2e | fdB BAF | d2B BAF | B/c/dB BAF |
DFA d2e | fdB BAF | BAF dBA |1 fac d2F :|2 fac d2B ||
|: Adf ~a3 | baf afd | f2g afd | Beg bge |
Adf ~a3 | baf afd | b2a afd |1 Ace d2B :|2 Ace d2e ||
|: fdd edc | d2g fdB | c2B cBA | ~a3 bag |
f2d ecA | d2g fdA | FAD GBD |1 Aec d2e :|2 Aec d2F ||
P:variations
|: DFA d2e | fdB BAF | dBB BAF | B/c/dB BAF |
DFA d2e | fdB BAF | BAF dBA |1 fac dAF :|2 fec d2B ||
|: Adf ~a3 | abf afd | f2g afd | Beg bge |
Adf ~a3 | abf afd | aba afd |1 Ace d2B :|2 Ace d2e ||
|: f2a ceA | deg fdB | c2e ceA | ~a3 bag |
f2d edc | d2e fdA | FAD GBD |1 Aec d2e :|2 Aec dAF ||

